modules/hawcons-filled/icons/icon-18-one-finger-swipe-left.svg

<?xml version="1.0" encoding="UTF-8" standalone="no"?>
<svg width="32px" height="32px" viewBox="0 0 32 32" version="1.1" xmlns="http://www.w3.org/2000/svg" xmlns:xlink="http://www.w3.org/1999/xlink" xmlns:sketch="http://www.bohemiancoding.com/sketch/ns">
    <!-- Generator: Sketch 3.0.3 (7891) - http://www.bohemiancoding.com/sketch -->
    <title>icon 18 one finger swipe left</title>
    <desc>Created with Sketch.</desc>
    <defs></defs>
    <g id="Page-1" stroke="none" stroke-width="1" fill="none" fill-rule="evenodd" sketch:type="MSPage">
        <g id="icon-18-one-finger-swipe-left" sketch:type="MSArtboardGroup" fill="#929292">
            <path d="M13.1361237,7 C13.3426558,6.41316896 13.8977039,6 14.549999,6 C15.3842018,6 16.049999,6.67543961 16.049999,7.50863659 L16.049999,14.5 L16.049999,17 L17.049999,17 L17.049999,14.4325233 L17.049999,12.4908981 C17.049999,11.6762201 17.7215719,11 18.549999,11 C19.3842018,11 20.049999,11.6674978 20.049999,12.4908981 L20.049999,14.5082011 L20.049999,16 L21.049999,16 L21.049999,14.5082011 L21.049999,13.4912653 C21.049999,12.6625444 21.7215719,12 22.549999,12 C23.3842018,12 24.049999,12.6676622 24.049999,13.4912653 L24.049999,14.6781559 L24.049999,17 L25.049999,17 L25.049999,16.7497253 L25.049999,14.5063976 C25.049999,13.6764628 25.7215719,13 26.549999,13 C27.3842018,13 28.049999,13.6744372 28.049999,14.5063976 L28.049999,19.2468012 L28.049999,22.5 C28.049999,26.6421358 24.6921348,30 20.549999,30 C16.7902839,29.9995418 14.5599948,27.9488875 12.7973745,24.9830936 C8.88536099,18.4007216 6.08386193,15.3887562 7.17103171,14.2957153 C8.28162878,13.1791206 10.9915994,15.5979243 13.049999,17.7983451 L13.049999,8 L6,8 L9.25,11.25 L8.5,12 L4,7.5 L8.5,3 L9.25,3.75 L6,7 L13.1361237,7 L13.1361237,7 Z" id="one-finger-swipe-left" sketch:type="MSShapeGroup"></path>
        </g>
    </g>
</svg>

<svg width="32" height="32" xmlns="http://www.w3.org/2000/svg"><path d="M13.136 7a1.5 1.5 0 0 1 2.914.509V17h1v-4.509a1.501 1.501 0 0 1 3 0V16h1v-2.509c0-.828.672-1.491 1.5-1.491.834 0 1.5.668 1.5 1.491V17h1v-2.494a1.5 1.5 0 1 1 3 0V22.5a7.5 7.5 0 0 1-7.5 7.5c-3.76 0-5.99-2.051-7.753-5.017-3.912-6.582-6.713-9.594-5.626-10.687 1.11-1.117 3.82 1.302 5.879 3.502V8H6l3.25 3.25-.75.75L4 7.5 8.5 3l.75.75L6 7h7.136z" fill="#929292" fill-rule="evenodd"/></svg>
